X:1
T:Title
%%score { ( 1 4 ) | ( 2 3 ) }
L:1/8
M:9/8
K:G
V:1 treble nm="Grand Piano"
V:4 treble 
V:2 treble 
V:3 treble 
V:1
 z3 z3[Q:1/4=100] D2 G | B3- BBB [Ac][GB][FA] | B3 G3 G2 B | d3- d2 G GFG | [FA]6 D2 G | %5
 B3- B2 B [Ac][GB][FA] | B3 G3 GAB | [FA]3- [FA]2 [DF] [EG]F[K:bass][G,^CE] |[M:3/4] [F,D]6 | %9
[M:3/8][K:treble] A2 ^G |[M:9/8] [FA]2- [DF-A-] [DFA]3 B2 A | G6 z3 | [FA]3- [FA]2 [FA] B2 G | %13
 [Fd]6 [Fd]2 [Ac] | B3- B2 B z A[DGB] |[M:21/16] [EGc]3 [EGc]3/2- [EGc]3 [DGB]->[DGB][CEA] | %16
[M:9/8] G3- G2 G AG[A,DF] |[M:3/4] [DG]6 |] %18
V:2
 z3 z3 [G,B,]2 [G,B,D] | [G,DG]3- [G,DG][G,DG][G,DG][K:bass] [D,D]2 [D,D] | %2
 [G,DG]3 [G,B,D]3 [G,B,D]2 [G,DG] | [G,B,G]3- [G,B,G]2[K:bass] [G,B,D] [A,CD]2 [G,B,D] | %4
 [D,D]6 [G,B,]2[K:treble] [G,B,D] | [G,DG]3- [G,DG]2 [G,DG][K:bass] [D,D]2 [D,D] | %6
 [G,DG]3 [G,B,D]3 [G,D]-[G,CD][G,DG] | [D,D]3- [D,D]2 [D,A,] z DA,, |[M:3/4] D,6 | %9
[M:3/8][K:treble] F2 =F |[M:9/8][K:bass] D,2 D, D,3[K:treble] G2 F | [E,B,]2 E, E,3 E^D[E,B,E] | %12
 [D,D]3- [D,D]2 [D,D][K:treble] [G,DG]2 [G,B,] | [D,A,]6 [D,A,]2 [D,C] | %14
 [G,DG]3- [G,DG]2 [G,DG] B,C[K:bass]G, |[M:21/16] C,3 C,3/2- C,3 C,->C,C, | %16
[M:9/8] [D,B,D]3- [D,B,D]2 [D,B,D] CB,D, |[M:3/4] G,,3 G,,3 |] %18
V:3
 x9 | x6[K:bass] x3 | x9 | x5[K:bass] x4 | x8[K:treble] x | x6[K:bass] x3 | z3 z3 .B,3 | %7
 z3 z3 .[A,,A,]3 |[M:3/4] x6 |[M:3/8][K:treble] x3 |[M:9/8][K:bass] x6[K:treble] x3 | %11
 z3 z3 .[E,B,]3 | x6[K:treble] x3 | x9 | z3 z3 .G,3[K:bass] |[M:21/16] x21/2 | %16
[M:9/8] z3 z3 .[D,D]3 |[M:3/4] x6 |] %18
V:4
 x9 | x9 | x9 | x9 | x9 | x9 | x9 | x8[K:bass] x |[M:3/4] x6 |[M:3/8][K:treble] x3 | %10
[M:9/8] .D3 z3 z3 | z2 B, B,3 GFG | x9 | x9 | z3 z3 .G3 |[M:21/16] x21/2 |[M:9/8] x9 | %17
[M:3/4] B,3 B,3 |] %18

